packages/dnb-eufemia/assets/icons/cloud_rain.svg

<svg width="16" height="16" viewBox="0 0 16 16" fill="none" xmlns="http://www.w3.org/2000/svg">
<path d="M3.55864 4.83003L3.69783 5.567L3.55864 4.83003ZM12.2866 6.04127L11.5447 5.93182C11.5114 6.15751 11.5826 6.38608 11.7382 6.55288C11.8939 6.71969 12.1169 6.80661 12.3444 6.78904L12.2866 6.04127ZM5.34541 5.8472C5.70455 6.05359 6.16299 5.92976 6.36938 5.57062C6.57576 5.21148 6.45193 4.75304 6.09279 4.54666L5.34541 5.8472ZM2.05741 13.4697C1.76451 13.7626 1.76451 14.2374 2.05741 14.5303C2.3503 14.8232 2.82517 14.8232 3.11807 14.5303L2.05741 13.4697ZM3.96967 14.3889C3.67678 14.6818 3.67678 15.1566 3.96967 15.4495C4.26256 15.7424 4.73744 15.7424 5.03033 15.4495L3.96967 14.3889ZM7.72033 13.4697C7.42744 13.7626 7.42744 14.2374 7.72033 14.5303C8.01322 14.8232 8.4881 14.8232 8.78099 14.5303L7.72033 13.4697ZM9.55179 14.4697C9.2589 14.7626 9.2589 15.2374 9.55179 15.5303C9.84468 15.8232 10.3196 15.8232 10.6124 15.5303L9.55179 14.4697ZM3.61807 14.0303C3.91096 13.7374 3.91096 13.2626 3.61807 12.9697C3.32517 12.6768 2.8503 12.6768 2.55741 12.9697L3.61807 14.0303ZM6.44953 14.0303C6.74242 13.7374 6.74242 13.2626 6.44953 12.9697C6.15663 12.6768 5.68176 12.6768 5.38887 12.9697L6.44953 14.0303ZM9.28099 14.0303C9.57388 13.7374 9.57388 13.2626 9.28099 12.9697C8.9881 12.6768 8.51322 12.6768 8.22033 12.9697L9.28099 14.0303ZM12.1124 14.0303C12.4053 13.7374 12.4053 13.2626 12.1124 12.9697C11.8196 12.6768 11.3447 12.6768 11.0518 12.9697L12.1124 14.0303ZM4.14607 10.3174C2.82276 10.3174 1.75 9.24466 1.75 7.92135H0.25C0.25 10.0731 1.99433 11.8174 4.14607 11.8174V10.3174ZM14.25 8.55056C14.25 9.52637 13.459 10.3174 12.4831 10.3174V11.8174C14.2874 11.8174 15.75 10.3548 15.75 8.55056H14.25ZM4.14607 11.8174H12.4831V10.3174H4.14607V11.8174ZM1.75 7.92135C1.75 6.75176 2.58876 5.77646 3.69783 5.567L3.41946 4.09306C1.61496 4.43386 0.25 6.0174 0.25 7.92135H1.75ZM4.30378 4.91534C4.52656 2.96949 6.26769 1.75 7.92135 1.75V0.25C5.62861 0.25 3.13636 1.92489 2.81351 4.74471L4.30378 4.91534ZM7.92135 1.75C10.3377 1.75 11.84 3.92951 11.5447 5.93182L13.0286 6.15071C13.4409 3.35588 11.3642 0.25 7.92135 0.25V1.75ZM12.3444 6.78904C13.3501 6.71137 14.25 7.54102 14.25 8.55056H15.75C15.75 6.66312 14.102 5.14883 12.2289 5.29349L12.3444 6.78904ZM3.69783 5.567C4.25811 5.46118 4.85097 5.56306 5.34541 5.8472L6.09279 4.54666C5.2908 4.08578 4.33448 3.92024 3.41946 4.09306L3.69783 5.567ZM2.55741 12.9697L2.05741 13.4697L3.11807 14.5303L3.61807 14.0303L2.55741 12.9697ZM5.38887 12.9697L3.96967 14.3889L5.03033 15.4495L6.44953 14.0303L5.38887 12.9697ZM8.22033 12.9697L7.72033 13.4697L8.78099 14.5303L9.28099 14.0303L8.22033 12.9697ZM11.0518 12.9697L9.55179 14.4697L10.6124 15.5303L12.1124 14.0303L11.0518 12.9697Z" fill="black"/>
</svg>

<svg width="16" height="16" viewBox="0 0 16 16" fill="none" xmlns="http://www.w3.org/2000/svg"><path d="m3.559 4.83.139.737-.14-.737Zm8.728 1.211-.743-.11a.75.75 0 0 0 .8.858l-.057-.748ZM1.8 14.47a.75.75 0 1 0 1.06 1.06L1.8 14.47Zm4.482 0a.75.75 0 1 0 1.06 1.06l-1.06-1.06Zm4.505 0a.75.75 0 1 0 1.06 1.06l-1.06-1.06Zm-6.426-.44A.75.75 0 1 0 3.3 12.97l1.06 1.06Zm4.482 0a.75.75 0 1 0-1.061-1.06l1.06 1.06Zm4.505 0a.75.75 0 1 0-1.061-1.06l1.06 1.06Zm-7.376-7.6a.75.75 0 0 0 1.283-.777l-1.283.776Zm-1.827 3.887A2.396 2.396 0 0 1 1.75 7.921H.25a3.896 3.896 0 0 0 3.896 3.896v-1.5ZM14.25 8.551c0 .975-.791 1.766-1.767 1.766v1.5a3.267 3.267 0 0 0 3.267-3.266h-1.5ZM4.146 11.817h8.337v-1.5H4.146v1.5ZM1.75 7.921c0-1.17.839-2.145 1.948-2.354l-.279-1.474A3.897 3.897 0 0 0 .25 7.921h1.5Zm2.554-3.006C4.526 2.97 6.268 1.75 7.92 1.75V.25c-2.293 0-4.785 1.675-5.108 4.495l1.49.17ZM7.92 1.75c2.417 0 3.919 2.18 3.623 4.182l1.484.219C13.441 3.356 11.364.25 7.921.25v1.5Zm4.423 5.039c1.006-.078 1.906.752 1.906 1.762h1.5c0-1.888-1.648-3.402-3.521-3.258l.115 1.496ZM3.698 5.567c.637-.12 1.102-.083 1.534.14l.688-1.333c-.828-.427-1.663-.44-2.5-.28l.278 1.473ZM3.3 12.97l-1.5 1.5 1.06 1.06 1.5-1.5-1.06-1.06Zm4.482 0-1.5 1.5 1.06 1.06 1.5-1.5-1.06-1.06Zm4.505 0-1.5 1.5 1.06 1.06 1.5-1.5-1.06-1.06ZM5.232 5.707c.195.1.382.272.532.446a2.726 2.726 0 0 1 .21.278v.001-.002h-.001l.642-.389.641-.388v-.001l-.001-.002a.68.68 0 0 0-.03-.047 4.226 4.226 0 0 0-.326-.43 3.384 3.384 0 0 0-.98-.8l-.687 1.334Z" fill="#000"/></svg>
